X:1
T: Mary Gray
C:
R:Reel
Q: 232
K:G
M:4/4
L:1/8
|:B1/2c1/2|dG BG c=F A2|dG Bd gd B2|dG BG c=F AB1/2c1/2|dc BA G3B1/2c1/2|
dG BG c=F A2|dG Bd gd B2|dG BG c=F AB1/2c1/2|dc BA G3B|
DD =FA cF A2|GG Bd gd B2|DD =FA cF Ac|dc BA G3B|
DD =FA cF A2|GG Bd gd B2|DD DE =FG Ac|dB cA G3:|
